X: 1
T: Humours of Trim
M: 6/8
L: 1/8
R: jig
K: D
|:\
"D"F2D DED | D2d "A"cAG | "D"F2D DED | "Em7"ABA "A"GFE |\
"D"FEF DED | D2d "A"cAG | "D"FAF "G"GBG | "A"ABA GFE :|
|:\
"D"D2d cAd | cAd "A"cAG | "D"F2d cAG | FAF "A"GFE |\
"D"D2d "A"cde | "D"fed "A"cAG | "D"FAF "G"GBG | "A"ABA GFE :|
%%text Transition: Melody plays last line; backup plays the first D chord and drops out.


